source/icons/vertical-align-top.svg

<svg xmlns="http://www.w3.org/2000/svg" width="8" height="8" viewBox="0 0 8 8">
  <path d="M0 0v1h8v-1h-8zm.09 2c-.06 0-.09.04-.09.09v4.81c0 .05.04.09.09.09h1.81c.05 0 .09-.04.09-.09v-4.81c0-.06-.04-.09-.09-.09h-1.81zm3 0c-.06 0-.09.04-.09.09v2.81c0 .05.04.09.09.09h1.81c.05 0 .09-.04.09-.09v-2.81c0-.06-.04-.09-.09-.09h-1.81zm3 0c-.05 0-.09.04-.09.09v4.81c0 .05.04.09.09.09h1.81c.05 0 .09-.04.09-.09v-4.81c0-.06-.04-.09-.09-.09h-1.81z"
  />
</svg>

<svg xmlns="http://www.w3.org/2000/svg" width="8" height="8" viewBox="0 0 8 8"><path d="M0 0v1h8V0H0zm.09 2C.03 2 0 2.04 0 2.09V6.9c0 .05.04.09.09.09H1.9c.05 0 .09-.04.09-.09V2.09c0-.06-.04-.09-.09-.09H.09zm3 0c-.06 0-.09.04-.09.09V4.9c0 .05.04.09.09.09H4.9c.05 0 .09-.04.09-.09V2.09c0-.06-.04-.09-.09-.09H3.09zm3 0c-.05 0-.09.04-.09.09V6.9c0 .05.04.09.09.09H7.9c.05 0 .09-.04.09-.09V2.09c0-.06-.04-.09-.09-.09H6.09z"/></svg>
